app/content/themes/irontheme/images/general/logo.svg

<svg width="122" height="46" viewBox="0 0 122 46" fill="none" xmlns="http://www.w3.org/2000/svg">
<path d="M0.217773 1.18945H10.1786L13.7173 25.6205L18.9599 1.18945H28.8552L34.0978 25.536L37.6365 1.18945H47.4663L40.0612 44.8104H29.8382L23.9403 17.4205L18.0425 44.8104H7.75394L0.217773 1.18945Z" fill="#236BB8"/>
<path d="M41.5684 30.3546L51.5292 29.5937C51.7258 31.7072 52.1845 33.2288 52.8398 34.3278C53.8884 36.1031 55.4611 36.9484 57.4271 36.9484C58.9343 36.9484 60.0484 36.5257 60.9003 35.5958C61.6867 34.6659 62.0798 33.6515 62.0798 32.468C62.0798 31.369 61.6867 30.3546 60.9003 29.4247C60.1139 28.4948 58.3445 27.6494 55.5267 26.8886C50.9394 25.536 47.6628 23.7607 45.7624 21.5627C43.7964 19.3648 42.8135 16.5751 42.8135 13.1936C42.8135 10.9957 43.3377 8.79772 44.3207 6.85337C45.3037 4.8245 46.8109 3.30283 48.8424 2.11932C50.8739 1.02035 53.6262 0.428589 57.165 0.428589C61.4901 0.428589 64.7667 1.44303 67.0603 3.55644C69.3539 5.58532 70.6645 8.88225 71.1232 13.4472L61.2935 14.2081C61.0313 12.2637 60.5071 10.8266 59.6552 9.89669C58.8033 8.96679 57.6892 8.54411 56.182 8.54411C54.9369 8.54411 54.085 8.88225 53.4296 9.55855C52.8398 10.2348 52.5122 10.9957 52.5122 12.0101C52.5122 12.6864 52.7743 13.3627 53.2986 13.8699C53.8228 14.4617 54.9369 14.9689 56.7718 15.4761C61.359 16.7442 64.5701 18.0122 66.6016 19.3648C68.5675 20.6328 70.0092 22.239 70.9267 24.1834C71.8441 26.1277 72.3028 28.2411 72.3028 30.6082C72.3028 33.3979 71.713 36.0185 70.5335 38.301C69.3539 40.668 67.6501 42.4433 65.4875 43.6268C63.325 44.8103 60.6381 45.4866 57.3615 45.4866C51.5947 45.4866 47.6628 44.0495 45.4347 41.1753C43.2067 38.301 41.8305 34.7505 41.5684 30.3546Z" fill="#236BB8"/>
<path d="M69 1.71429H86.366C90.1668 1.71429 92.9847 2.89781 94.8851 5.1803C96.7855 7.46279 97.703 10.7597 97.703 15.0711C97.703 19.467 96.6545 22.933 94.623 25.3846C92.5915 27.8361 89.446 29.1042 85.2519 29.1042H79.5506V45.2507H69.0655V1.71429H69ZM79.4196 20.3124H81.9753C84.0068 20.3124 85.383 19.8897 86.2349 18.9598C87.0213 18.0299 87.48 16.9309 87.48 15.4938C87.48 14.1412 87.1523 12.9577 86.4315 12.0278C85.7106 11.0979 84.4 10.5906 82.434 10.5906H79.4851V20.3124H79.4196Z" fill="#236BB8"/>
<path d="M90.783 40.7536V38.8938H94.4528V43.2052C94.1252 43.6278 93.6009 44.0505 92.88 44.3887C92.1592 44.7268 91.5039 44.8959 90.8486 44.8959C89.9966 44.8959 89.2103 44.6423 88.5549 44.2196C87.8996 43.7969 87.3754 43.0361 87.0477 42.1907C86.72 41.3454 86.5234 40.3309 86.5234 39.3165C86.5234 38.2175 86.72 37.2031 87.0477 36.2732C87.3754 35.3433 87.9651 34.7515 88.686 34.2443C89.2103 33.9061 89.9311 33.7371 90.7175 33.7371C91.766 33.7371 92.5524 33.9907 93.1422 34.5824C93.732 35.1742 94.1252 35.935 94.2562 36.9495L92.5524 37.3721C92.4213 36.8649 92.2247 36.4422 91.8971 36.1041C91.5694 35.7659 91.1762 35.6814 90.652 35.6814C89.9311 35.6814 89.3413 36.0196 88.8826 36.6113C88.4239 37.2031 88.2273 38.133 88.2273 39.3165C88.2273 40.5845 88.4239 41.599 88.8826 42.1907C89.3413 42.7825 89.9311 43.1206 90.652 43.1206C90.9796 43.1206 91.3728 43.0361 91.7005 42.867C92.0281 42.6979 92.3558 42.4443 92.6179 42.1907V40.8381H90.783V40.7536Z" fill="#236BB8"/>
<path d="M94.125 44.8104V33.9052H97.7293C98.6467 33.9052 99.302 33.9897 99.6952 34.1588C100.088 34.3278 100.416 34.666 100.678 35.1732C100.94 35.6804 101.071 36.2722 101.071 36.8639C101.071 37.7093 100.875 38.3856 100.482 38.8928C100.088 39.4 99.5641 39.7382 98.8433 39.9073C99.2365 40.1609 99.4986 40.499 99.7607 40.8372C100.023 41.1753 100.351 41.7671 100.744 42.6124L101.792 44.7259H99.7607L98.5156 42.3588C98.0569 41.5135 97.7948 41.0062 97.5982 40.7526C97.4016 40.499 97.2705 40.4145 97.0739 40.3299C96.8773 40.2454 96.6152 40.2454 96.222 40.2454H95.8944V44.8104H94.125ZM95.8288 38.4701H97.0739C97.8603 38.4701 98.3846 38.3856 98.5812 38.3011C98.7778 38.2165 98.9744 38.0475 99.0399 37.8784C99.1054 37.7093 99.2365 37.3712 99.2365 37.033C99.2365 36.6949 99.171 36.3567 99.0399 36.1031C98.9088 35.8495 98.6467 35.765 98.3846 35.6804C98.2535 35.6804 97.8603 35.6804 97.1395 35.6804H95.8288V38.4701Z" fill="#236BB8"/>
<path d="M100.416 39.4C100.416 38.3011 100.547 37.3712 100.809 36.6103C101.006 36.0186 101.268 35.5959 101.596 35.0887C101.923 34.5815 102.316 34.3278 102.71 34.0742C103.234 33.8206 103.824 33.6516 104.545 33.6516C105.79 33.6516 106.773 34.1588 107.559 35.1732C108.345 36.1877 108.673 37.5402 108.673 39.3155C108.673 41.0908 108.28 42.4434 107.559 43.4578C106.838 44.4722 105.855 44.9795 104.61 44.9795C103.365 44.9795 102.382 44.4722 101.596 43.4578C100.809 42.4434 100.416 41.0908 100.416 39.4ZM102.185 39.3155C102.185 40.5836 102.382 41.5135 102.841 42.1052C103.299 42.697 103.824 43.0351 104.545 43.0351C105.265 43.0351 105.79 42.697 106.248 42.1052C106.707 41.5135 106.904 40.499 106.904 39.231C106.904 37.9629 106.707 37.033 106.248 36.4413C105.79 35.8495 105.265 35.5114 104.545 35.5114C103.824 35.5114 103.299 35.8495 102.841 36.4413C102.382 37.033 102.185 38.0475 102.185 39.3155Z" fill="#236BB8"/>
<path d="M108.018 33.9052H109.722V39.8227C109.722 40.7526 109.722 41.3444 109.787 41.6825C109.853 42.1052 110.049 42.5279 110.311 42.7815C110.574 43.0351 110.967 43.2042 111.425 43.2042C111.884 43.2042 112.277 43.0351 112.54 42.7815C112.802 42.5279 112.933 42.1898 112.998 41.8516C113.064 41.5135 113.064 40.8372 113.064 39.9918V33.9897H114.768V39.7382C114.768 41.0062 114.702 41.9361 114.637 42.5279C114.571 43.1197 114.374 43.5423 114.112 43.8805C113.85 44.2186 113.523 44.5568 113.129 44.8104C112.736 45.064 112.146 45.1485 111.491 45.1485C110.705 45.1485 110.049 45.064 109.656 44.8104C109.263 44.5568 108.935 44.2186 108.673 43.8805C108.411 43.5423 108.28 43.1197 108.214 42.697C108.083 42.1052 108.018 41.1753 108.018 39.9073V33.9052Z" fill="#236BB8"/>
<path d="M114.702 44.8104V33.9052H117.454C118.503 33.9052 119.158 33.9897 119.486 34.0742C119.945 34.2433 120.403 34.5814 120.731 35.1732C121.059 35.765 121.19 36.4412 121.19 37.2866C121.19 37.9629 121.124 38.5547 120.928 38.9773C120.731 39.4 120.469 39.8227 120.207 40.0763C119.945 40.3299 119.617 40.499 119.355 40.5835C118.962 40.6681 118.372 40.7526 117.586 40.7526H116.472V44.8949H114.702V44.8104ZM116.406 35.765V38.8928H117.323C117.979 38.8928 118.437 38.8083 118.7 38.7237C118.962 38.6392 119.093 38.4701 119.224 38.2165C119.355 37.9629 119.42 37.7093 119.42 37.3712C119.42 36.9485 119.355 36.6103 119.158 36.3567C118.962 36.1031 118.765 35.934 118.503 35.8495C118.306 35.765 117.913 35.765 117.258 35.765H116.406Z" fill="#236BB8"/>
</svg>

<svg width="122" height="46" viewBox="0 0 122 46" fill="none" xmlns="http://www.w3.org/2000/svg"><path d="M.218 1.19h9.96l3.54 24.43L18.96 1.19h9.895l5.243 24.346 3.538-24.347h9.83L40.061 44.81H29.838L23.94 17.42l-5.898 27.39H7.755L.218 1.19z" fill="#236BB8"/><path d="M41.568 30.355l9.961-.761c.197 2.113.655 3.635 1.31 4.734 1.05 1.775 2.622 2.62 4.588 2.62 1.507 0 2.621-.422 3.473-1.352.787-.93 1.18-1.944 1.18-3.128 0-1.099-.393-2.113-1.18-3.043-.786-.93-2.556-1.776-5.373-2.536-4.588-1.353-7.864-3.128-9.765-5.326-1.966-2.198-2.949-4.988-2.949-8.37 0-2.197.525-4.395 1.508-6.34.983-2.029 2.49-3.55 4.521-4.734C50.874 1.02 53.626.43 57.165.43c4.325 0 7.602 1.014 9.895 3.127 2.294 2.03 3.605 5.326 4.063 9.891l-9.83.761c-.262-1.944-.786-3.381-1.638-4.311-.852-.93-1.966-1.353-3.473-1.353-1.245 0-2.097.338-2.752 1.015-.59.676-.918 1.437-.918 2.451 0 .676.262 1.353.787 1.86.524.592 1.638 1.099 3.473 1.606 4.587 1.268 7.798 2.536 9.83 3.889 1.965 1.268 3.407 2.874 4.325 4.818.917 1.945 1.376 4.058 1.376 6.425 0 2.79-.59 5.41-1.77 7.693-1.18 2.367-2.883 4.142-5.046 5.326-2.162 1.183-4.849 1.86-8.125 1.86-5.767 0-9.7-1.438-11.927-4.312-2.228-2.874-3.605-6.424-3.867-10.82z" fill="#236BB8"/><path d="M69 1.714h17.366c3.8 0 6.619 1.184 8.52 3.466 1.9 2.283 2.817 5.58 2.817 9.891 0 4.396-1.049 7.862-3.08 10.314-2.032 2.451-5.177 3.72-9.371 3.72H79.55V45.25H69.065V1.714H69zm10.42 18.598h2.555c2.032 0 3.408-.422 4.26-1.352.786-.93 1.245-2.03 1.245-3.466 0-1.353-.328-2.536-1.049-3.466-.72-.93-2.031-1.437-3.997-1.437h-2.949v9.721h-.065zm11.363 20.442v-1.86h3.67v4.311c-.328.423-.852.846-1.573 1.184-.72.338-1.376.507-2.031.507a4.219 4.219 0 01-2.294-.676c-.655-.423-1.18-1.184-1.507-2.03a8.127 8.127 0 01-.525-2.873 9.1 9.1 0 01.525-3.044c.327-.93.917-1.522 1.638-2.029.524-.338 1.245-.507 2.031-.507 1.049 0 1.835.254 2.425.845.59.592.983 1.353 1.114 2.367l-1.704.423c-.13-.507-.327-.93-.655-1.268-.328-.338-.72-.423-1.245-.423-.72 0-1.31.339-1.77.93-.458.592-.655 1.522-.655 2.706 0 1.267.197 2.282.656 2.874.458.591 1.048.93 1.769.93.328 0 .72-.085 1.049-.254.327-.17.655-.423.917-.676v-1.353h-1.835v-.084z" fill="#236BB8"/><path d="M94.125 44.81V33.905h3.604c.918 0 1.573.085 1.966.254.393.169.721.507.983 1.014s.393 1.1.393 1.69c0 .846-.196 1.523-.589 2.03-.394.507-.918.845-1.639 1.014.394.254.656.592.918.93.262.338.59.93.983 1.775l1.048 2.114h-2.031l-1.245-2.367c-.46-.846-.721-1.353-.918-1.606-.196-.254-.328-.339-.524-.423-.197-.085-.459-.085-.852-.085h-.328v4.565h-1.769zm1.704-6.34h1.245c.786 0 1.31-.084 1.507-.169.197-.084.393-.254.459-.423.065-.169.197-.507.197-.845 0-.338-.066-.676-.197-.93s-.393-.338-.655-.423h-2.556v2.79z" fill="#236BB8"/><path d="M100.416 39.4c0-1.099.131-2.029.393-2.79.197-.591.459-1.014.787-1.521.327-.508.72-.761 1.114-1.015a4.1 4.1 0 011.835-.422c1.245 0 2.228.507 3.014 1.521.786 1.015 1.114 2.367 1.114 4.142 0 1.776-.393 3.128-1.114 4.143-.721 1.014-1.704 1.522-2.949 1.522-1.245 0-2.228-.508-3.014-1.522-.787-1.015-1.18-2.367-1.18-4.058zm1.769-.084c0 1.268.197 2.197.656 2.79.458.591.983.93 1.704.93.72 0 1.245-.339 1.703-.93.459-.593.656-1.607.656-2.875s-.197-2.198-.656-2.79c-.458-.592-.983-.93-1.703-.93-.721 0-1.246.338-1.704.93-.459.592-.656 1.606-.656 2.874z" fill="#236BB8"/><path d="M108.018 33.905h1.704v5.918c0 .93 0 1.521.065 1.86.066.422.262.845.524 1.099a1.6 1.6 0 001.114.422 1.6 1.6 0 001.115-.422c.262-.254.393-.592.458-.93.066-.338.066-1.015.066-1.86V33.99h1.704v5.748c0 1.268-.066 2.198-.131 2.79-.066.592-.263 1.014-.525 1.352a4.04 4.04 0 01-.983.93c-.393.254-.983.338-1.638.338-.786 0-1.442-.084-1.835-.338a4.058 4.058 0 01-.983-.93c-.262-.338-.393-.76-.459-1.183-.131-.592-.196-1.522-.196-2.79v-6.002z" fill="#236BB8"/><path d="M114.702 44.81V33.905h2.752c1.049 0 1.704.085 2.032.17.459.168.917.506 1.245 1.098.328.592.459 1.268.459 2.114 0 .676-.066 1.268-.262 1.69-.197.423-.459.846-.721 1.1-.262.253-.59.422-.852.507a8.496 8.496 0 01-1.769.169h-1.114v4.142h-1.77v-.085zm1.704-9.045v3.128h.917c.656 0 1.114-.085 1.377-.17.262-.084.393-.253.524-.506a1.74 1.74 0 00.196-.846c0-.422-.065-.76-.262-1.014-.196-.254-.393-.423-.655-.508-.197-.084-.59-.084-1.245-.084h-.852z" fill="#236BB8"/></svg>
